assets/erp-02b4ae71.svg

<svg width="64" height="64" viewBox="0 0 64 64" fill="none" xmlns="http://www.w3.org/2000/svg">
    <path fill-rule="evenodd" clip-rule="evenodd" d="M20 16C17.7909 16 16 17.7909 16 20V27C16 29.2091 17.7909 31 20 31H21.5V37.5C21.5 40.2614 23.7386 42.5 26.5 42.5H33V44C33 46.2091 34.7909 48 37 48H44C46.2091 48 48 46.2091 48 44V37C48 34.7909 46.2091 33 44 33H37C34.7909 33 33 34.7909 33 37V38.5H27.5C26.3954 38.5 25.5 37.6046 25.5 36.5V31H27C29.2091 31 31 29.2091 31 27V20C31 17.7909 29.2091 16 27 16H20ZM27 21.5C27 20.6716 26.3284 20 25.5 20H21.5C20.6716 20 20 20.6716 20 21.5L20 25.5C20 26.3284 20.6716 27 21.5 27H25.5C26.3284 27 27 26.3284 27 25.5V21.5ZM44 38.5C44 37.6716 43.3284 37 42.5 37H38.5C37.6716 37 37 37.6716 37 38.5V42.5C37 43.3284 37.6716 44 38.5 44H42.5C43.3284 44 44 43.3284 44 42.5V38.5Z" fill="#1976D2"/>
    <rect x="0.5" y="0.5" width="63" height="63" rx="31.5" stroke="#D3D3D3"/>
</svg>

<svg xmlns="http://www.w3.org/2000/svg" width="64" height="64" fill="none" viewBox="0 0 64 64"><path fill="#1976D2" fill-rule="evenodd" d="M20 16a4 4 0 0 0-4 4v7a4 4 0 0 0 4 4h1.5v6.5a5 5 0 0 0 5 5H33V44a4 4 0 0 0 4 4h7a4 4 0 0 0 4-4v-7a4 4 0 0 0-4-4h-7a4 4 0 0 0-4 4v1.5h-5.5a2 2 0 0 1-2-2V31H27a4 4 0 0 0 4-4v-7a4 4 0 0 0-4-4zm7 5.5a1.5 1.5 0 0 0-1.5-1.5h-4a1.5 1.5 0 0 0-1.5 1.5v4a1.5 1.5 0 0 0 1.5 1.5h4a1.5 1.5 0 0 0 1.5-1.5zm17 17a1.5 1.5 0 0 0-1.5-1.5h-4a1.5 1.5 0 0 0-1.5 1.5v4a1.5 1.5 0 0 0 1.5 1.5h4a1.5 1.5 0 0 0 1.5-1.5z" clip-rule="evenodd"/><rect width="63" height="63" x="0.5" y="0.5" stroke="#D3D3D3" rx="31.5"/></svg>
